icon-themes/breeze_svg/sc/res/sidebar/CellBorder_All_18x18.svg

<svg viewBox="0 0 18 18" xmlns="http://www.w3.org/2000/svg"><path d="m3 2v6h6v-6zm7 0v6h6v-6zm-7 7v6h6v-6zm7 0v6h6v-6z" fill="#b3b3b3"/><path d="m2 1v1 6 1 6 1h15v-1-6-1-6-1zm1 1h6v6h-6zm7 0h6v6h-6zm-7 7h6v6h-6zm7 0h6v6h-6z" fill="#4d4d4d"/></svg>

<svg xmlns="http://www.w3.org/2000/svg" viewBox="0 0 18 18">
    <path
       style="fill:#b3b3b3"
       d="M 3 2 L 3 8 L 9 8 L 9 2 L 3 2 z M 10 2 L 10 8 L 16 8 L 16 2 L 10 2 z M 3 9 L 3 15 L 9 15 L 9 9 L 3 9 z M 10 9 L 10 15 L 16 15 L 16 9 L 10 9 z "
	   />
    <path
       style="fill:#4d4d4d"
       d="M 2 1 L 2 2 L 2 8 L 2 9 L 2 15 L 2 16 L 17 16 L 17 15 L 17 9 L 17 8 L 17 2 L 17 1 L 2 1 z M 3 2 L 9 2 L 9 8 L 3 8 L 3 2 z M 10 2 L 16 2 L 16 8 L 10 8 L 10 2 z M 3 9 L 9 9 L 9 15 L 3 15 L 3 9 z M 10 9 L 16 9 L 16 15 L 10 15 L 10 9 z "
       />
</svg>
